X:1
T: Miss Helen McCall's Strathspey
M: C|
B: James Campbell's Collection 1798
Z: source from Highland Music Trust, chords by Gary Whaley
L: 1/8
K:D
F/E/[|:"D"D>F Ad {c}d2 AF|"G"B>G "D"A>F "A"G<E EF |"D"D>F Ad {c}d (eg)|"D"f>d "A" ce "D"d/d/d d :|]
f[|:"D"a>f df df af |"A" g>e cg ef ge |"D"a>f df d>f af |"A"g>e ce "D"d/d/d d>f|
|"D"a>f df df af | "A" T(3gfg ec Ac eg |"D" f<a d<f B<d A>F | "G"G<E "D"A>F D/D/D D :|]
